X:1
T: Byrne's Hornpipe
T: 2nd setting
R:Reel
Q: 232
K:D
M:4/4
L:1/8
|:A2|dA FA BG EG|FA d4 c2|Bg gf fe ed|c2 A2 A3G|
FA Ac dA GF|Ed cd ec Ag|fg af bg ec|d2 d2 d2:|
|:fe|df ba gf ed|ce ag fe dc|Bd gf ed cd|B2 B2 B3B|
d2 df dA GF|Ed cd ec Ag|fg af bg ec|d2 d2 d2:|
